src/icons/import.svg

<svg width="24" height="24" viewBox="0 0 24 24" fill="none" xmlns="http://www.w3.org/2000/svg">
<path d="M8 21L19 21L19 3L8 3L8 7L6 7L6 11L6 1L21 1L21 23L6 23L6 13L6 17H8L8 21Z" fill="black"/>
<path d="M6 13L13 13L11 15L12.5 16.5L17 12L12.5 7.5L11 9L13 11L6 11H0.999998L0.999998 13H6Z" fill="black"/>
</svg>

<svg xmlns="http://www.w3.org/2000/svg" width="24" height="24" fill="none"><path fill="currentColor" d="M8 21h11V3H8v4H6v4V1h15v22H6V13v4h2z"/><path fill="currentColor" d="M6 13h7l-2 2 1.5 1.5L17 12l-4.5-4.5L11 9l2 2H1v2z"/></svg>
